X:11
T:Cronin's Favorite
S:Bernie Waugh
R:Jig
M:6/8
L:1/8
K:A Dor
|:\
"Am"EAA ABd|ege dBA|"G"GEF G2B|dBA GED|
"Am"EAA ABd|"C"ege "D"def|"Em"gag e/f/ge|1\
"Em"dBG "Am"A3:|2"Em"dBG "Am"AcB||
|:\
"Am"[Ae]ag e/e/ed|eaa bag|"G"efg d/d/dg|eaf ged|
"Am/F"eag e/e/ed|eaa bag|"Em"efg "F"edB|"G"B/B/AG "Am"A3:|

